X:1
T:A minor Jacob French, 1802
T:Thomas Flatman, 1672 Anthem for the Evening   88. 88. (L. M.)
T:Dormant
T:Transcribed from Harmony of Harmony, 1802
%%score [ 1 2 3 4 ]
L:1/8
Q:1/4=140
M:2/2
K:C
V:1 treble nm="Treble" snm="Tr."
V:2 treble nm="Counter" snm="C."
V:3 treble-8 nm="Tenor" snm="T."
V:4 bass nm="Bass" snm="B."
V:1
 c4 cB A2 | ^G4 (A2 e2) | (d2 c2) B4 | c8- | c4 z4 | c4 c2 c2 | B6 d2 | (c>d e2) (d2 c2) | B8 |: %9
w: 1.~Sleep! dow- * ny|sleep! come *|close * my|eyes,~|_|Tired with be-|hol- ding|va- * * ni- *|ties!|
 z8 | z8 | z4 e4 | ed c2 B2 c2 | d2 c2 (B>c d2 | e3 d c4- | c6) B2 | (c>dc>d B2) B2 | %17
w: ||Sweet|slum- * bers, come and|chase a- way~ _ _|_ _ _|* The|toils~ _ _ _ _ and|
 (A>BA>B ^G2) G2 | (c>dc>d B2) B2 | A8 :| %20
w: fol- * * * * lies|of~ _ _ _ _ the|day.|
V:2
 E4 E2 DC | B,4 E4 | F4 E4 | E8- | E4 z4 | G4 G2 G2 | G6 GF | (E2 A2) G4 | G8 |: z8 | z8 | z8 | %12
w: ||||||||||||
 z4 G4 | A2 A2 G2 G2 | G2 G2 G4- | G6 G2 | G6 GF | E6 ED | (C2 F2 E2) E2 | E8 :| %20
w: Sweet|slum- bers, come and|chase a- way~|_ _|||||
V:3
 A4 AG F2 | E4 (c3 B) | A4 ^G4 | A8- | A4 z4 | e4 e2 e2 | d6 B2 | c4 d4 | e8 |: z8 | z4 e4 | %11
w: 1.~Sleep! dow- * ny|sleep! come *|close my|eyes,~|_|Tired with be-|hol- ding|va- ni-|ties!||Sweet|
 ed c2 B2 B2 | AB cd e2 e2 | f2 e2 d>c B2 | c2 d2 e4- | e6 d2 | (e>fe>f d2) d2 | (c>dc>d B2) B2 | %18
w: slum- * bers, come and|chase * a- * way the|toils and fol- * lies|of the day.~|_ The|toils~ _ _ _ _ and|fol- * * * * lies|
 (A>BA>B ^G2) G2 | A8 :| %20
w: of~ _ _ _ _ the|day.|
V:4
 A,,4 C,2 D,2 | E,4 C,4 | D,4 E,4 | A,,8- | A,,4 z4 | C,4 C,2 C,2 | G,6 G,2 | A,4 B,4 | E,8 |: %9
w: |||||||||
 z4 A,4 | A,G, F,2 E,2 E,2 | A,,B,, C,D, E,2 E,2 | A,2 A,2 E,2 E,2 | D,4 G,4 | C,8- | C,6 G,2 | %16
w: Sweet|slum- * bers, come and|chase * a- * way The|toils and fol- lies|of the|day.~|_ _|
 (C4 G,2) G,2 | (A,4 E,2) E,2 | (F,3 D, E,2) E,2 | A,,8 :| %20
w: ||||

